X:61
T:Blackberry Blossom, The
R:reel
E:7
M:C|
I:speed 350
K:G
ge|dBAc BAGA|~B3A B2ge|dBAc BAG2|eaag a2 ge|\
dBAc BAGA|~B3A B2 ge|dBAc BAG2|eaag a2||*
ef|~g3f gaba|~g3b agef|~g3f ga~a2|ea~a2 agef\
|~g3f gaba|~g3b a2 ga|bagf gfed|eaag a2||**
<end>
<start>
